imgs/logo2-white.svg

<svg width="148" height="37" viewBox="0 0 148 37" fill="none" xmlns="http://www.w3.org/2000/svg">
<g clip-path="url(#clip0_63_648)">
<g clip-path="url(#clip1_63_648)">
<path d="M10.0824 2.69283C10.045 2.62068 10.0222 2.54188 10.0152 2.46092C10.0083 2.37995 10.0174 2.29842 10.042 2.22097C10.0666 2.14353 10.1062 2.07168 10.1586 2.00955C10.2109 1.94741 10.275 1.8962 10.3472 1.85885C12.5614 0.732861 15.0211 0.175628 17.5044 0.237385C19.9878 0.299142 22.4167 0.977947 24.5722 2.2126C24.643 2.25326 24.7049 2.30752 24.7545 2.37224C24.8042 2.43697 24.8405 2.51088 24.8614 2.58971C24.8823 2.66854 24.8874 2.75074 24.8764 2.83155C24.8654 2.91237 24.8385 2.99021 24.7973 3.06058L17.6762 15.2819C17.6219 15.3755 17.5439 15.4531 17.4501 15.507C17.3562 15.5609 17.2499 15.5892 17.1416 15.5891H17.1259C17.0151 15.5861 16.907 15.5535 16.813 15.4947C16.719 15.4359 16.6425 15.353 16.5913 15.2546L10.0824 2.69283ZM16.7596 18.8484V18.8472L10.2505 6.28538C10.1749 6.13995 10.0448 6.03033 9.88866 5.98046C9.73253 5.93059 9.563 5.94452 9.4171 6.0192C7.68233 6.9087 6.1403 8.13205 4.87953 9.61902C3.61875 11.106 2.66405 12.8273 2.07021 14.6842C1.47637 16.5411 1.2551 18.497 1.41908 20.4396C1.58306 22.3822 2.12907 24.2733 3.02578 26.0044C3.92248 27.7354 5.15223 29.2723 6.64443 30.5269C8.13663 31.7815 9.8619 32.7291 11.7212 33.3152C13.5806 33.9013 15.5373 34.1144 17.4793 33.9424C19.4212 33.7703 21.31 33.2165 23.0373 32.3126C23.1824 32.2366 23.2915 32.1063 23.3409 31.9502C23.3904 31.794 23.376 31.6247 23.301 31.4791L16.7596 18.8484ZM24.3897 30.7219L24.4392 30.821C24.514 30.9671 24.6429 31.0782 24.7984 31.1307C24.8622 31.1518 24.9296 31.1602 24.9966 31.1554C25.0946 31.1527 25.1912 31.1317 25.2815 31.0935C25.507 30.9818 25.7261 30.8577 25.938 30.7219C26.568 30.3564 27.1685 29.9423 27.734 29.4833H23.7456L24.3897 30.7219ZM23.1015 28.2446H29.0841C29.4688 27.8581 29.8248 27.4442 30.1494 27.006H22.4574L23.1015 28.2446ZM21.8257 25.7673H31.0288C31.2825 25.3697 31.5101 24.9559 31.71 24.5287H21.1816L21.8257 25.7673ZM20.5375 23.2901H32.255C32.4194 22.8857 32.56 22.4721 32.6762 22.0514H19.8934L20.5375 23.2901ZM19.2493 20.8128H32.9858C33.0602 20.404 33.1221 19.9953 33.1592 19.5741H18.6176L19.2493 20.8128ZM25.8884 5.15636C25.8189 5.11313 25.7409 5.08524 25.6598 5.07456C25.5786 5.06388 25.4961 5.07065 25.4177 5.09443C25.3375 5.11275 25.2619 5.14753 25.1959 5.19657C25.1298 5.24561 25.0746 5.30784 25.0338 5.37931L24.6993 5.94909H27.0899C26.7039 5.66355 26.3028 5.39893 25.8884 5.15636ZM28.5887 7.18773H23.9809L23.2625 8.42637H29.7654C29.3989 7.98976 29.0059 7.5761 28.5887 7.18773ZM30.6944 9.66501H22.5317L21.8133 10.9037H31.4499C31.2264 10.4741 30.974 10.0603 30.6944 9.66501ZM32.0445 12.1423H21.0949L20.3765 13.3809H32.5275C32.3902 12.9592 32.229 12.5456 32.0445 12.1423ZM32.8744 14.6196H19.6457L18.9273 15.8582H33.0973C33.0481 15.4412 32.9737 15.0276 32.8744 14.6196ZM33.2212 17.0969H18.2088L17.9116 17.6047C17.8579 17.6941 17.8285 17.796 17.8264 17.9003C17.8242 18.0046 17.8493 18.1077 17.8992 18.1992L17.9735 18.3355H33.246C33.2583 18.2116 33.2583 18.0754 33.2583 17.9515C33.2583 17.6666 33.246 17.3817 33.2212 17.0969Z" fill="white"/>
<path d="M9.79779 5.40696C9.57075 4.97673 9.03637 4.80993 8.61954 5.06072C5.31966 7.04608 2.85427 10.182 1.71086 13.8808C0.480492 17.861 0.881618 22.1669 2.826 25.8512C4.77038 29.5356 8.09873 32.2967 12.0789 33.5271C15.7777 34.6705 19.7579 34.4049 23.2591 32.801C23.7013 32.5985 23.8652 32.0632 23.6382 31.6329L16.718 18.52L9.79779 5.40696Z" fill="white"/>
</g>
<path d="M55.3586 6.48689C57.9089 6.48689 59.896 7.10322 61.3199 8.33586C62.7651 9.54726 63.4876 11.2687 63.4876 13.5002C63.4876 15.7317 62.7651 17.4638 61.3199 18.6965C59.896 19.9079 57.9089 20.5136 55.3586 20.5136H51.1824V27.5269H45.6993V6.48689H55.3586ZM54.4978 16.4012C56.8143 16.4012 57.9726 15.4342 57.9726 13.5002C57.9726 11.5662 56.8143 10.5993 54.4978 10.5993H51.1824V16.4012H54.4978ZM66.6108 27.5269V11.5875H71.3926L71.6157 15.0304C71.9983 13.8615 72.5827 12.9477 73.3691 12.2888C74.1767 11.6087 75.2074 11.2687 76.4613 11.2687C76.8651 11.2687 77.2051 11.3112 77.4814 11.3962C77.779 11.46 78.0127 11.5344 78.1828 11.6194L77.6408 16.0824C77.4283 16.0186 77.152 15.9549 76.812 15.8911C76.4932 15.8274 76.1 15.7955 75.6325 15.7955C74.6548 15.7955 73.8047 16.1037 73.0822 16.72C72.3808 17.3363 72.0302 18.2608 72.0302 19.4934V27.5269H66.6108ZM87.9003 27.8457C85.2437 27.8457 83.1397 27.1231 81.5883 25.6779C80.0581 24.2327 79.293 22.1925 79.293 19.5572C79.293 17.8145 79.6437 16.3268 80.345 15.0942C81.0676 13.8403 82.0452 12.8945 83.2779 12.257C84.5318 11.5981 85.9876 11.2687 87.6453 11.2687C89.3242 11.2687 90.7481 11.5981 91.917 12.257C93.1072 12.8945 94.0104 13.7871 94.6267 14.9348C95.243 16.0612 95.5512 17.3576 95.5512 18.824C95.5512 19.2278 95.53 19.6209 95.4875 20.0035C95.4662 20.3648 95.4449 20.6729 95.4237 20.928H84.553C84.7018 22.0331 85.0631 22.8301 85.6369 23.3189C86.2107 23.7864 86.9652 24.0202 87.9003 24.0202C88.7079 24.0202 89.3455 23.8608 89.813 23.542C90.3018 23.2233 90.6631 22.7769 90.8969 22.2031L95.2324 23.6377C94.9349 24.5515 94.4142 25.3273 93.6704 25.9648C92.9478 26.5811 92.0764 27.0487 91.0563 27.3675C90.0574 27.6863 89.0054 27.8457 87.9003 27.8457ZM87.6453 15.0623C85.9238 15.0623 84.9037 16.0505 84.5849 18.027H90.4187C90.1849 16.0505 89.2605 15.0623 87.6453 15.0623ZM105.277 27.8457C103.684 27.8457 102.206 27.5906 100.846 27.0806C99.4862 26.5493 98.3492 25.7948 97.4353 24.8172L99.9856 21.8206C100.517 22.5007 101.218 23.0745 102.09 23.542C102.982 23.9883 103.97 24.2115 105.054 24.2115C105.713 24.2115 106.255 24.1159 106.68 23.9246C107.105 23.7333 107.318 23.4358 107.318 23.032C107.318 22.7557 107.211 22.5219 106.999 22.3306C106.786 22.1394 106.361 21.98 105.724 21.8525L103.492 21.4062C101.495 21.0024 100.071 20.4073 99.2205 19.6209C98.3917 18.8134 97.9772 17.7614 97.9772 16.465C97.9772 15.5936 98.2429 14.7647 98.7742 13.9784C99.3055 13.1921 100.124 12.5439 101.229 12.0338C102.334 11.5237 103.747 11.2687 105.469 11.2687C108.763 11.2687 111.164 12.1826 112.673 14.0103L110.091 16.9431C109.581 16.3056 108.922 15.8061 108.115 15.4448C107.307 15.0835 106.499 14.9029 105.692 14.9029C104.14 14.9029 103.365 15.2961 103.365 16.0824C103.365 16.3587 103.492 16.6031 103.747 16.8156C104.024 17.0281 104.523 17.1982 105.246 17.3257L108.147 17.8995C109.783 18.2183 110.963 18.7708 111.685 19.5572C112.408 20.3223 112.769 21.2574 112.769 22.3625C112.769 23.914 112.142 25.221 110.888 26.2836C109.655 27.325 107.785 27.8457 105.277 27.8457ZM126.993 11.5875V15.4448H122.243V21.8525C122.243 22.6176 122.424 23.1701 122.785 23.5102C123.168 23.8289 123.689 23.9883 124.347 23.9883C124.858 23.9883 125.293 23.9352 125.654 23.8289C126.016 23.7014 126.356 23.5208 126.675 23.287L127.248 26.6343C126.717 26.9956 126.037 27.2931 125.208 27.5269C124.401 27.7394 123.582 27.8457 122.754 27.8457C120.926 27.8457 119.481 27.4631 118.418 26.698C117.377 25.9117 116.845 24.594 116.824 22.7451V15.4448H114.082V11.5875H116.824V8.01707L122.243 6.51877V11.5875H126.993ZM137.084 11.2687C138.763 11.2687 140.229 11.5981 141.483 12.257C142.758 12.9158 143.746 13.8615 144.448 15.0942C145.17 16.3268 145.532 17.8145 145.532 19.5572C145.532 21.2999 145.17 22.7876 144.448 24.0202C143.746 25.2529 142.758 26.1986 141.483 26.8574C140.229 27.5163 138.763 27.8457 137.084 27.8457C135.426 27.8457 133.96 27.5163 132.685 26.8574C131.431 26.1986 130.442 25.2529 129.72 24.0202C129.018 22.7876 128.668 21.2999 128.668 19.5572C128.668 17.8145 129.018 16.3268 129.72 15.0942C130.442 13.8615 131.431 12.9158 132.685 12.257C133.96 11.5981 135.426 11.2687 137.084 11.2687ZM137.084 15.126C136.149 15.126 135.415 15.4767 134.884 16.178C134.374 16.8581 134.119 17.9845 134.119 19.5572C134.119 21.1086 134.374 22.235 134.884 22.9363C135.415 23.6377 136.149 23.9883 137.084 23.9883C138.04 23.9883 138.773 23.6377 139.283 22.9363C139.815 22.235 140.08 21.1086 140.08 19.5572C140.08 17.9845 139.815 16.8581 139.283 16.178C138.773 15.4767 138.04 15.126 137.084 15.126Z" fill="white"/>
</g>
<defs>
<clipPath id="clip0_63_648">
<rect width="146.513" height="41.2903" fill="white" transform="translate(0.922485 -4.47311)"/>
</clipPath>
<clipPath id="clip1_63_648">
<rect width="32.745" height="34.8351" fill="white" transform="translate(0.731323 -0.319336)"/>
</clipPath>
</defs>
</svg>

<svg xmlns="http://www.w3.org/2000/svg" width="148" height="37" fill="none" xmlns:v="https://vecta.io/nano"><g clip-path="url(#A)" fill="#fff"><g clip-path="url(#B)"><path d="M10.082 2.693a.62.62 0 0 1 .077-.683.62.62 0 0 1 .189-.151 14.97 14.97 0 0 1 14.225.354c.071.041.133.095.182.16a.64.64 0 0 1 .107.217.62.62 0 0 1-.064.471l-7.121 12.221a.61.61 0 0 1-.226.225.62.62 0 0 1-.308.082h-.016a.62.62 0 0 1-.535-.335l-6.51-12.561zm6.677 16.156v-.001L10.251 6.285a.62.62 0 0 0-.833-.266c-1.735.89-3.277 2.113-4.538 3.6s-2.215 3.208-2.809 5.065a14.8 14.8 0 0 0-.651 5.755c.164 1.942.71 3.834 1.607 5.565s2.126 3.268 3.619 4.523a14.8 14.8 0 0 0 5.077 2.788 14.81 14.81 0 0 0 5.758.627 14.8 14.8 0 0 0 5.558-1.63.62.62 0 0 0 .264-.834l-6.543-12.63zm7.63 11.874l.049.099a.63.63 0 0 0 .359.31.53.53 0 0 0 .198.025c.098-.003.195-.024.285-.062a6.86 6.86 0 0 0 .656-.372 13.99 13.99 0 0 0 1.796-1.239h-3.988l.644 1.239zm-1.288-2.477h5.983c.385-.386.741-.8 1.065-1.239h-7.692l.644 1.239zm-1.276-2.477h9.203a10.86 10.86 0 0 0 .681-1.239H21.182l.644 1.239zm-1.288-2.477h11.718a11.22 11.22 0 0 0 .421-1.239H19.893l.644 1.239zm-1.288-2.477h13.736l.173-1.239h-14.54l.632 1.239zm6.639-15.656a.59.59 0 0 0-.229-.082c-.081-.011-.164-.004-.242.02a.59.59 0 0 0-.222.102c-.066.049-.121.111-.162.183l-.334.57h2.391a13.42 13.42 0 0 0-1.201-.793zm2.7 2.031H23.98l-.718 1.239h6.503a13.77 13.77 0 0 0-1.177-1.239zm2.106 2.477h-8.163l-.718 1.239h9.637c-.223-.43-.476-.843-.755-1.239zm1.35 2.477h-10.95l-.718 1.239h12.151a11.64 11.64 0 0 0-.483-1.239zm.83 2.477H19.646l-.718 1.239h14.17a10.38 10.38 0 0 0-.223-1.239zm.347 2.477H18.209l-.297.508a.59.59 0 0 0-.085.296.6.6 0 0 0 .073.299l.074.136h15.273c.012-.124.012-.26.012-.384l-.037-.855z"/><path d="M9.798 5.407c-.227-.43-.761-.597-1.178-.346a15.71 15.71 0 0 0-5.794 20.79 15.71 15.71 0 0 0 20.433 6.95c.442-.203.606-.738.379-1.168l-6.92-13.113-6.92-13.113z"/></g><path d="M55.359 6.487c2.55 0 4.537.616 5.961 1.849 1.445 1.211 2.168 2.933 2.168 5.164s-.723 3.964-2.168 5.196c-1.424 1.211-3.411 1.817-5.961 1.817h-4.176v7.013H45.7V6.487h9.659zm-.861 9.914c2.317 0 3.475-.967 3.475-2.901s-1.158-2.901-3.475-2.901h-3.315v5.802h3.315zm12.113 11.126V11.588h4.782l.223 3.443c.383-1.169.967-2.083 1.753-2.742.808-.68 1.838-1.02 3.092-1.02.404 0 .744.042 1.02.127.298.064.531.138.701.223l-.542 4.463c-.213-.064-.489-.127-.829-.191-.319-.064-.712-.096-1.18-.096-.978 0-1.828.308-2.55.924-.701.616-1.052 1.541-1.052 2.773v8.034H66.61zm21.29.319c-2.657 0-4.761-.723-6.312-2.168-1.53-1.445-2.295-3.485-2.295-6.121 0-1.743.351-3.23 1.052-4.463.723-1.254 1.7-2.2 2.933-2.837 1.254-.659 2.71-.988 4.367-.988 1.679 0 3.103.329 4.272.988 1.19.638 2.093 1.53 2.71 2.678.616 1.126.924 2.423.924 3.889a10.68 10.68 0 0 1-.064 1.179l-.064.925H84.553c.149 1.105.51 1.902 1.084 2.391.574.468 1.328.701 2.263.701.808 0 1.445-.159 1.913-.478.489-.319.85-.765 1.084-1.339l4.335 1.435a5.09 5.09 0 0 1-1.562 2.327c-.723.616-1.594 1.084-2.614 1.403-.999.319-2.051.478-3.156.478zm-.255-12.783c-1.722 0-2.742.988-3.06 2.965h5.834c-.234-1.977-1.158-2.965-2.773-2.965zm17.632 12.783c-1.593 0-3.071-.255-4.431-.765-1.36-.531-2.497-1.286-3.411-2.263l2.55-2.997c.531.68 1.232 1.254 2.104 1.721.892.446 1.88.669 2.964.669.659 0 1.201-.096 1.626-.287s.638-.489.638-.893a.91.91 0 0 0-.319-.701c-.213-.191-.638-.351-1.275-.478l-2.232-.446c-1.997-.404-3.421-.999-4.272-1.785-.829-.807-1.243-1.86-1.243-3.156 0-.871.266-1.7.797-2.487s1.35-1.434 2.455-1.945 2.518-.765 4.24-.765c3.294 0 5.695.914 7.204 2.742l-2.582 2.933c-.51-.638-1.169-1.137-1.976-1.498s-1.616-.542-2.423-.542c-1.552 0-2.327.393-2.327 1.179 0 .276.127.521.382.733.277.212.776.383 1.499.51l2.901.574c1.636.319 2.816.871 3.538 1.658.723.765 1.084 1.7 1.084 2.805 0 1.552-.627 2.858-1.881 3.921-1.233 1.041-3.103 1.562-5.611 1.562zm21.716-16.258v3.857h-4.75v6.408c0 .765.181 1.318.542 1.658.383.319.904.478 1.562.478.511 0 .946-.053 1.307-.159.362-.128.702-.308 1.021-.542l.573 3.347c-.531.361-1.211.659-2.04.893-.807.212-1.626.319-2.454.319-1.828 0-3.273-.383-4.336-1.148-1.041-.786-1.573-2.104-1.594-3.953v-7.3h-2.742v-3.857h2.742v-3.57l5.419-1.498v5.069h4.75zm10.091-.319c1.679 0 3.145.329 4.399.988 1.275.659 2.263 1.604 2.965 2.837.722 1.233 1.084 2.72 1.084 4.463s-.362 3.23-1.084 4.463c-.702 1.233-1.69 2.178-2.965 2.837-1.254.659-2.72.988-4.399.988-1.658 0-3.124-.329-4.399-.988a7.32 7.32 0 0 1-2.965-2.837c-.702-1.233-1.052-2.72-1.052-4.463s.35-3.23 1.052-4.463a7.32 7.32 0 0 1 2.965-2.837c1.275-.659 2.741-.988 4.399-.988zm0 3.857c-.935 0-1.669.351-2.2 1.052-.51.68-.765 1.806-.765 3.379 0 1.551.255 2.678.765 3.379.531.701 1.265 1.052 2.2 1.052.956 0 1.689-.351 2.199-1.052.532-.701.797-1.828.797-3.379 0-1.573-.265-2.699-.797-3.379-.51-.701-1.243-1.052-2.199-1.052z"/></g><defs><clipPath id="A"><path fill="#fff" transform="translate(.922 -4.473)" d="M0 0h146.513v41.29H0z"/></clipPath><clipPath id="B"><path fill="#fff" transform="translate(.731 -.319)" d="M0 0h32.745v34.835H0z"/></clipPath></defs></svg>
